X:1
T:Bugle Quickstep [1], The
L:1/8
M:6/8
I:linebreak $
K:D
V:1 treble 
V:1
 A | dfA d2 A | dfA d2 f | a2 f fed | efe ecA | dfA d2 A | dfA d2 f | a2 f efe | (d3 d2) ::$ A | %10
 f3 gfg | a3 f2 g | agf fed | efe ecA | f3 gfg | a3 f2 g | agf gec | edd d2 :| %18
